src/assets/diamonds_10.svg

<?xml version="1.0" encoding="UTF-8"?>
<svg xmlns="http://www.w3.org/2000/svg" xmlns:xlink="http://www.w3.org/1999/xlink" width="99px" height="140px" viewBox="0 0 99 140" version="1.1">
<g id="surface1">
<path style="fill-rule:nonzero;fill:rgb(100%,100%,100%);fill-opacity:1;stroke-width:0.755906;stroke-linecap:butt;stroke-linejoin:miter;stroke:rgb(50.196078%,50.196078%,50.196078%);stroke-opacity:1;stroke-miterlimit:4;" d="M 9.297585 719.743103 L 224.702415 719.743103 C 229.632812 719.743103 233.621449 723.747651 233.621449 728.681329 L 233.621449 1043.042991 C 233.621449 1047.976669 229.632812 1051.981217 224.702415 1051.981217 L 9.297585 1051.981217 C 4.367188 1051.981217 0.378551 1047.976669 0.378551 1043.042991 L 0.378551 728.681329 C 0.378551 723.747651 4.367188 719.743103 9.297585 719.743103 Z M 9.297585 719.743103 " transform="matrix(0.423077,0,0,0.42042,0,-302.434542)"/>
<path style=" stroke:none;fill-rule:nonzero;fill:rgb(100%,0%,0%);fill-opacity:1;" d="M 24.804688 39.820312 L 36.753906 27.90625 L 24.804688 15.992188 L 12.855469 27.90625 Z M 24.804688 39.820312 "/>
<path style=" stroke:none;fill-rule:nonzero;fill:rgb(100%,0%,0%);fill-opacity:1;" d="M 24.804688 124.007812 L 36.753906 112.09375 L 24.804688 100.179688 L 12.855469 112.09375 Z M 24.804688 124.007812 "/>
<path style=" stroke:none;fill-rule:nonzero;fill:rgb(100%,0%,0%);fill-opacity:1;" d="M 24.804688 95.945312 L 36.753906 84.03125 L 24.804688 72.117188 L 12.855469 84.03125 Z M 24.804688 95.945312 "/>
<path style=" stroke:none;fill-rule:nonzero;fill:rgb(100%,0%,0%);fill-opacity:1;" d="M 24.804688 67.882812 L 36.753906 55.96875 L 24.804688 44.054688 L 12.855469 55.96875 Z M 24.804688 67.882812 "/>
<path style=" stroke:none;fill-rule:nonzero;fill:rgb(100%,0%,0%);fill-opacity:1;" d="M 74.195312 39.820312 L 86.144531 27.90625 L 74.195312 15.992188 L 62.246094 27.90625 Z M 74.195312 39.820312 "/>
<path style=" stroke:none;fill-rule:nonzero;fill:rgb(100%,0%,0%);fill-opacity:1;" d="M 74.195312 124.007812 L 86.144531 112.09375 L 74.195312 100.179688 L 62.246094 112.09375 Z M 74.195312 124.007812 "/>
<path style=" stroke:none;fill-rule:nonzero;fill:rgb(100%,0%,0%);fill-opacity:1;" d="M 74.195312 95.945312 L 86.144531 84.03125 L 74.195312 72.117188 L 62.246094 84.03125 Z M 74.195312 95.945312 "/>
<path style=" stroke:none;fill-rule:nonzero;fill:rgb(100%,0%,0%);fill-opacity:1;" d="M 74.195312 67.882812 L 86.144531 55.96875 L 74.195312 44.054688 L 62.246094 55.96875 Z M 74.195312 67.882812 "/>
<path style=" stroke:none;fill-rule:nonzero;fill:rgb(100%,0%,0%);fill-opacity:1;" d="M 49.5 109.976562 L 61.449219 98.0625 L 49.5 86.148438 L 37.550781 98.0625 Z M 49.5 109.976562 "/>
<path style=" stroke:none;fill-rule:nonzero;fill:rgb(100%,0%,0%);fill-opacity:1;" d="M 49.5 53.851562 L 61.449219 41.9375 L 49.5 30.023438 L 37.550781 41.9375 Z M 49.5 53.851562 "/>
<path style=" stroke:none;fill-rule:nonzero;fill:rgb(100%,0%,0%);fill-opacity:1;" d="M 7.277344 14.769531 C 7.277344 14.90625 7.265625 15.027344 7.242188 15.132812 C 7.171875 15.175781 7.097656 15.199219 7.015625 15.199219 L 3.828125 15.199219 C 3.636719 15.199219 3.542969 15.007812 3.542969 14.621094 C 3.542969 14.554688 3.546875 14.453125 3.550781 14.308594 C 3.558594 14.160156 3.558594 14.046875 3.558594 13.972656 C 3.558594 13.609375 3.644531 13.425781 3.808594 13.425781 L 4.886719 13.425781 L 4.886719 5.816406 L 3.574219 5.816406 C 3.386719 5.816406 3.296875 5.621094 3.296875 5.238281 C 3.296875 5.15625 3.300781 5.023438 3.308594 4.84375 C 3.320312 4.65625 3.328125 4.515625 3.328125 4.421875 C 3.328125 4.234375 3.417969 4.144531 3.601562 4.144531 C 3.65625 4.144531 3.753906 4.152344 3.898438 4.175781 C 4.039062 4.191406 4.152344 4.199219 4.234375 4.199219 C 4.695312 4.199219 4.972656 3.894531 5.070312 3.285156 L 5.898438 3.285156 L 5.898438 13.425781 C 6.089844 13.425781 6.296875 13.417969 6.519531 13.394531 C 6.742188 13.367188 6.878906 13.355469 6.921875 13.355469 C 7.085938 13.355469 7.191406 13.4375 7.230469 13.609375 C 7.261719 13.757812 7.277344 14.144531 7.277344 14.769531 Z M 7.277344 14.769531 "/>
<path style=" stroke:none;fill-rule:nonzero;fill:rgb(100%,0%,0%);fill-opacity:1;" d="M 11.261719 9.382812 C 11.261719 13.261719 10.601562 15.199219 9.285156 15.199219 C 7.949219 15.199219 7.277344 13.25 7.277344 9.351562 C 7.277344 5.308594 7.960938 3.285156 9.324219 3.285156 C 10.617188 3.285156 11.261719 5.320312 11.261719 9.382812 Z M 10.222656 9.214844 C 10.222656 6.4375 9.90625 5.046875 9.269531 5.046875 C 8.894531 5.046875 8.632812 5.597656 8.472656 6.695312 C 8.375 7.390625 8.324219 8.253906 8.324219 9.285156 C 8.324219 12.0625 8.640625 13.453125 9.269531 13.453125 C 9.644531 13.453125 9.910156 12.90625 10.070312 11.8125 C 10.171875 11.109375 10.222656 10.242188 10.222656 9.214844 Z M 10.222656 9.214844 "/>
<path style=" stroke:none;fill-rule:nonzero;fill:rgb(100%,0%,0%);fill-opacity:1;" d="M 7.277344 25.789062 L 11.261719 21.816406 L 7.277344 17.847656 L 3.296875 21.816406 Z M 7.277344 25.789062 "/>
<path style=" stroke:none;fill-rule:nonzero;fill:rgb(100%,0%,0%);fill-opacity:1;" d="M 91.722656 125.230469 C 91.722656 125.09375 91.734375 124.972656 91.757812 124.867188 C 91.828125 124.824219 91.902344 124.800781 91.984375 124.800781 L 95.171875 124.800781 C 95.363281 124.800781 95.457031 124.992188 95.457031 125.378906 C 95.457031 125.445312 95.453125 125.546875 95.449219 125.691406 C 95.441406 125.839844 95.441406 125.953125 95.441406 126.027344 C 95.441406 126.390625 95.355469 126.574219 95.191406 126.574219 L 94.113281 126.574219 L 94.113281 134.183594 L 95.425781 134.183594 C 95.613281 134.183594 95.703125 134.378906 95.703125 134.761719 C 95.703125 134.84375 95.699219 134.976562 95.691406 135.15625 C 95.679688 135.34375 95.671875 135.484375 95.671875 135.578125 C 95.671875 135.765625 95.582031 135.859375 95.398438 135.859375 C 95.34375 135.859375 95.246094 135.847656 95.101562 135.824219 C 94.960938 135.808594 94.847656 135.800781 94.765625 135.800781 C 94.304688 135.800781 94.027344 136.105469 93.929688 136.714844 L 93.101562 136.714844 L 93.101562 126.574219 C 92.910156 126.574219 92.703125 126.582031 92.480469 126.605469 C 92.257812 126.632812 92.121094 126.648438 92.078125 126.648438 C 91.914062 126.648438 91.808594 126.5625 91.769531 126.390625 C 91.738281 126.242188 91.722656 125.855469 91.722656 125.230469 Z M 91.722656 125.230469 "/>
<path style=" stroke:none;fill-rule:nonzero;fill:rgb(100%,0%,0%);fill-opacity:1;" d="M 87.738281 130.617188 C 87.738281 126.738281 88.398438 124.800781 89.714844 124.800781 C 91.050781 124.800781 91.722656 126.75 91.722656 130.648438 C 91.722656 134.691406 91.039062 136.714844 89.675781 136.714844 C 88.382812 136.714844 87.738281 134.679688 87.738281 130.617188 Z M 88.777344 130.785156 C 88.777344 133.5625 89.09375 134.953125 89.730469 134.953125 C 90.105469 134.953125 90.367188 134.402344 90.527344 133.304688 C 90.625 132.609375 90.675781 131.746094 90.675781 130.714844 C 90.675781 127.9375 90.359375 126.546875 89.730469 126.546875 C 89.355469 126.546875 89.089844 127.09375 88.929688 128.1875 C 88.828125 128.890625 88.777344 129.757812 88.777344 130.785156 Z M 88.777344 130.785156 "/>
<path style=" stroke:none;fill-rule:nonzero;fill:rgb(100%,0%,0%);fill-opacity:1;" d="M 91.722656 114.210938 L 95.703125 118.183594 L 91.722656 122.152344 L 87.738281 118.183594 Z M 91.722656 114.210938 "/>
</g>
</svg>

<svg xmlns="http://www.w3.org/2000/svg" width="99" height="140"><path d="M9.298 719.743h215.404c4.93 0 8.92 4.005 8.92 8.938v314.362c0 4.934-3.99 8.938-8.92 8.938H9.298c-4.93 0-8.92-4.004-8.92-8.938V728.681c0-4.933 3.99-8.938 8.92-8.938Zm0 0" style="fill-rule:nonzero;fill:#fff;fill-opacity:1;stroke-width:.755906;stroke-linecap:butt;stroke-linejoin:miter;stroke:gray;stroke-opacity:1;stroke-miterlimit:4" transform="matrix(.42308 0 0 .42042 0 -302.435)"/><path d="m24.805 39.82 11.949-11.914-11.95-11.914-11.949 11.914ZM24.805 124.008l11.949-11.914-11.95-11.914-11.949 11.914ZM24.805 95.945l11.949-11.914-11.95-11.914-11.949 11.914ZM24.805 67.883l11.949-11.914-11.95-11.914-11.949 11.914ZM74.195 39.82l11.95-11.914-11.95-11.914-11.949 11.914ZM74.195 124.008l11.95-11.914-11.95-11.914-11.949 11.914ZM74.195 95.945l11.95-11.914-11.95-11.914-11.949 11.914ZM74.195 67.883l11.95-11.914-11.95-11.914-11.949 11.914ZM49.5 109.977l11.95-11.915L49.5 86.148 37.55 98.063ZM49.5 53.852l11.95-11.914L49.5 30.023 37.55 41.938ZM7.277 14.77c0 .136-.011.257-.035.363a.426.426 0 0 1-.226.066H3.828c-.191 0-.285-.191-.285-.578 0-.066.004-.168.008-.312.008-.149.008-.262.008-.336 0-.364.086-.547.25-.547h1.078v-7.61H3.574c-.187 0-.277-.195-.277-.578 0-.082.004-.215.012-.394.011-.188.02-.328.02-.422 0-.188.089-.277.273-.277.054 0 .152.007.296.03.141.016.254.024.336.024.461 0 .739-.304.836-.914h.828v10.14c.192 0 .399-.007.622-.03.222-.028.359-.04.402-.04.164 0 .27.082.308.254.032.149.047.536.047 1.16ZM11.262 9.383c0 3.879-.66 5.816-1.977 5.816-1.336 0-2.008-1.949-2.008-5.847 0-4.043.684-6.067 2.047-6.067 1.293 0 1.938 2.035 1.938 6.098Zm-1.04-.168c0-2.777-.316-4.168-.952-4.168-.375 0-.637.55-.797 1.648-.098.696-.149 1.559-.149 2.59 0 2.777.317 4.168.946 4.168.375 0 .64-.547.8-1.64.102-.704.153-1.57.153-2.598ZM7.277 25.79l3.985-3.974-3.985-3.968-3.98 3.968ZM91.723 125.23c0-.136.011-.257.035-.363a.426.426 0 0 1 .226-.066h3.188c.191 0 .285.191.285.578 0 .066-.004.168-.008.312-.008.149-.008.262-.008.336 0 .364-.086.547-.25.547h-1.078v7.61h1.313c.187 0 .277.195.277.578 0 .082-.004.215-.012.394-.011.188-.02.328-.02.422 0 .188-.089.281-.273.281-.054 0-.152-.011-.296-.035a3.229 3.229 0 0 0-.336-.023c-.461 0-.739.304-.836.914h-.828v-10.14c-.192 0-.399.007-.622.03-.222.028-.359.043-.402.043-.164 0-.27-.085-.308-.257-.032-.149-.047-.536-.047-1.16ZM87.738 130.617c0-3.879.66-5.816 1.977-5.816 1.336 0 2.008 1.949 2.008 5.847 0 4.043-.684 6.067-2.047 6.067-1.293 0-1.938-2.035-1.938-6.098Zm1.04.168c0 2.778.316 4.168.952 4.168.375 0 .637-.55.797-1.648.098-.696.149-1.559.149-2.59 0-2.778-.317-4.168-.946-4.168-.375 0-.64.547-.8 1.64-.102.704-.153 1.57-.153 2.598ZM91.723 114.21l3.98 3.974-3.98 3.968-3.985-3.968Zm0 0" style="stroke:none;fill-rule:nonzero;fill:red;fill-opacity:1"/></svg>
